X: 1
T:Flat Cap, 2nd setting
M:3/2
L:1/8
K:F
P:1
DEFG A2 F2 A4 | c2 G4 C2 EFGE |\
DEFG ABAF  A4 | d2 A4 GF E2 D2 ||
P:2
f2 d2 g2 e2 f2 d2 | g2 f2 e2 d2 c2 A2 |\
f2 d2 g2 e2 f3 e  | d2 A4    GF E2 D2 ||
P:3
fgaf efge fgaf | g2 e2 e2 c2 efge |\
defd efge agfe | d2 A4    GF EFGE ||
P:4
F2 A2 G2 B2 F2 A2 | c2 G4 C2 EFGE |\
F2 A2 G2 B2 F2 A2 | d2 A4 GF EFGE ||
P:5
DEFG ABAF ABcd | c2 G2 G2 C2 EFGE |\
DEFG ABAG ABAG | ABAF  ABAF  EFGE ||
P:6
DEFG  ABcB  ABcd | c2 G2 G2 C2 EFGE|\
D2 F2 E2 G2 F2 A2| d2 A4 GF E2 D2  ||
P:7
F2 A2 G2 B2 F2 A2 | E2 c2 G2 C2 EFGE |\
D2 F2 E2 G2 F2 A2 | A,2 d2 cAGF EFGE |]
